icons/bug-32.svg

<svg width="32" height="32" viewBox="0 0 32 32" fill="none" xmlns="http://www.w3.org/2000/svg">
<g clip-path="url(#clip0)">
<path fill-rule="evenodd" clip-rule="evenodd" d="M9.43934 0.43934C10.0251 -0.146447 10.9749 -0.146447 11.5607 0.43934L13.5588 2.43745C14.3189 2.15459 15.1414 2 16 2C16.8586 2 17.6811 2.15459 18.4412 2.43745L20.4393 0.43934C21.0251 -0.146447 21.9749 -0.146447 22.5607 0.43934C23.1464 1.02513 23.1464 1.97487 22.5607 2.56066L21.01 4.11128C22.2413 5.37292 23 7.09786 23 9V9.65385C23 9.85326 22.9826 10.0486 22.9491 10.2384C23.7664 10.5162 24.478 11.0226 25.008 11.6812L28.9429 10.1073C29.7121 9.79961 30.585 10.1737 30.8927 10.9429C31.2004 11.7121 30.8263 12.585 30.0571 12.8927L26 14.5156V18H29.5C30.3284 18 31 18.6716 31 19.5C31 20.3284 30.3284 21 29.5 21H26V22C26 22.817 25.902 23.6112 25.7172 24.3713L30.0571 26.1073C30.8263 26.415 31.2004 27.2879 30.8927 28.0571C30.585 28.8263 29.7121 29.2004 28.9429 28.8927L24.5761 27.146C22.8272 30.0543 19.6408 32 16 32C12.3592 32 9.17279 30.0543 7.42393 27.146L3.05709 28.8927C2.28791 29.2004 1.41496 28.8263 1.10729 28.0571C0.799615 27.2879 1.17374 26.415 1.94291 26.1073L6.28284 24.3713C6.09798 23.6112 6 22.817 6 22V21H1.5C0.671573 21 0 20.3284 0 19.5C0 18.6716 0.671573 18 1.5 18H6V14.5155L1.94291 12.8927C1.17374 12.585 0.799615 11.7121 1.10729 10.9429C1.41496 10.1737 2.28791 9.79961 3.05709 10.1073L6.992 11.6812C7.52195 11.0226 8.23362 10.5162 9.05089 10.2384C9.01744 10.0486 9 9.85326 9 9.65384V9C9 7.09786 9.75869 5.37292 10.99 4.11128L9.43934 2.56066C8.85355 1.97487 8.85355 1.02513 9.43934 0.43934ZM12.3462 10L19.6538 10C19.845 10 20 9.84502 20 9.65385V9C20 6.79086 18.2091 5 16 5C13.7909 5 12 6.79086 12 9V9.65384C12 9.84502 12.155 10 12.3462 10ZM10.5 13C9.67157 13 9 13.6716 9 14.5V22C9 25.866 12.134 29 16 29C19.866 29 23 25.866 23 22V14.5C23 13.6716 22.3284 13 21.5 13H10.5Z" fill="black"/>
</g>
<defs>
<clipPath id="clip0">
<rect width="32" height="32" fill="white"/>
</clipPath>
</defs>
</svg>

<svg xmlns="http://www.w3.org/2000/svg" width="32" height="32" viewBox="0 0 32 32"><path fill-rule="evenodd" d="M9.44.44a1.5 1.5 0 012.12 0l1.999 1.997A6.985 6.985 0 0116 2c.859 0 1.681.155 2.441.437L20.44.44a1.5 1.5 0 012.122 2.122L21.01 4.11A6.977 6.977 0 0123 9v.654c0 .2-.017.395-.05.584a4.509 4.509 0 012.058 1.443l3.935-1.574a1.5 1.5 0 111.114 2.786L26 14.516V18h3.5a1.5 1.5 0 010 3H26v1c0 .817-.098 1.611-.283 2.371l4.34 1.736a1.5 1.5 0 11-1.114 2.786l-4.367-1.747A9.995 9.995 0 0116 32a9.995 9.995 0 01-8.576-4.854l-4.367 1.747a1.5 1.5 0 11-1.114-2.786l4.34-1.736A10.024 10.024 0 016 22v-1H1.5a1.5 1.5 0 010-3H6v-3.485l-4.057-1.622a1.5 1.5 0 111.114-2.786l3.935 1.574a4.509 4.509 0 012.059-1.443A3.366 3.366 0 019 9.654V9a6.98 6.98 0 011.99-4.889l-1.55-1.55a1.5 1.5 0 010-2.122zM12.345 10h7.308A.346.346 0 0020 9.654V9a4 4 0 00-8 0v.654c0 .191.155.346.346.346zM10.5 13A1.5 1.5 0 009 14.5V22a7 7 0 1014 0v-7.5a1.5 1.5 0 00-1.5-1.5h-11z"/></svg>
